src/assets/logo.svg

<?xml version="1.0" encoding="UTF-8"?>
<svg width="145px" height="129px" viewBox="0 0 145 129" version="1.1" xmlns="http://www.w3.org/2000/svg" xmlns:xlink="http://www.w3.org/1999/xlink">
    <!-- Generator: Sketch 52.5 (67469) - http://www.bohemiancoding.com/sketch -->
    <title>Group 3</title>
    <desc>Created with Sketch.</desc>
    <defs>
        <linearGradient x1="0%" y1="50%" x2="100%" y2="50%" id="linearGradient-1">
            <stop stop-color="#FA709A" offset="0%"></stop>
            <stop stop-color="#FEE140" offset="100%"></stop>
        </linearGradient>
        <ellipse id="path-2" cx="13.5695187" cy="13.5585586" rx="13.5695187" ry="13.5585586"></ellipse>
    </defs>
    <g id="Welcome" stroke="none" stroke-width="1" fill="none" fill-rule="evenodd">
        <g id="Desktop" transform="translate(-440.000000, -71.000000)">
            <g id="Group-3" transform="translate(440.000000, 71.000000)">
                <g id="Group-2">
                    <g id="React-icon" fill="url(#linearGradient-1)" fill-rule="nonzero">
                        <path d="M145,64.5147631 C145,54.9187457 132.970852,45.8246738 114.528129,40.1851682 C118.784142,21.4065003 116.892581,6.46623941 108.557888,1.68299382 C106.636771,0.56099794 104.390542,0.0295262074 101.937424,0.0295262074 L101.937424,6.61387045 C103.296983,6.61387045 104.390542,6.87960632 105.306767,7.38155184 C109.326335,9.68459602 111.070118,18.4538796 109.710558,29.7328908 C109.385446,32.5083543 108.853445,35.4314488 108.203221,38.4135958 C102.410314,36.9963378 96.0854056,35.9038682 89.4353852,35.1952392 C85.445373,29.7328908 81.3075826,24.772488 77.1402364,20.4321355 C86.7753771,11.4856947 95.8194048,6.58434424 101.966979,6.58434424 L101.966979,0 C93.8391765,0 83.1991439,5.78713664 72.4408887,15.8260472 C61.6826335,5.84618906 51.0426009,0.118104829 42.9147982,0.118104829 L42.9147982,6.70244907 C49.032817,6.70244907 58.1064003,11.5742733 67.741541,20.4616617 C63.6037505,24.8020142 59.46596,29.7328908 55.5350591,35.1952392 C48.8554831,35.9038682 42.5305748,36.9963378 36.7376682,38.443122 C36.0578883,35.4905013 35.5554423,32.6264591 35.2007746,29.8805219 C33.8116592,18.6015106 35.5258867,9.83222705 39.5158989,7.49965667 C40.4025683,6.96818494 41.5552385,6.73197528 42.9147982,6.73197528 L42.9147982,0.147631037 C40.4321239,0.147631037 38.1858948,0.67910277 36.2352222,1.80109865 C27.9300856,6.58434424 26.0680799,21.495079 30.3536486,40.2146944 C11.9700367,45.8837263 0,54.9482719 0,64.5147631 C0,74.1107805 12.029148,83.2048524 30.4718712,88.844358 C26.2158581,107.623026 28.1074195,122.563287 36.4421117,127.346532 C38.3632287,128.468528 40.6094578,129 43.0921321,129 C51.2199348,129 61.8599674,123.212863 72.6182226,113.173953 C83.3764778,123.153811 94.0165104,128.881895 102.144313,128.881895 C104.626987,128.881895 106.873216,128.350423 108.823889,127.228428 C117.129026,122.445182 118.991031,107.534447 114.705463,88.8148318 C133.029963,83.1753262 145,74.0812543 145,64.5147631 Z M106.518549,44.8207828 C105.42499,48.6296635 104.06543,52.5566491 102.528536,56.4836347 C101.316755,54.1215381 100.045862,51.7594415 98.6567468,49.3973449 C97.2971871,47.0352483 95.8489605,44.7322042 94.4007338,42.4882124 C98.5976355,43.1082628 102.646759,43.8759442 106.518549,44.8207828 Z M92.9820628,76.2661936 C90.6767224,80.2522316 88.3122707,84.0315862 85.8591521,87.5452049 C81.4553608,87.9290455 76.9924582,88.135729 72.5,88.135729 C68.0370974,88.135729 63.5741949,87.9290455 59.1999592,87.5747311 C56.7468406,84.0611124 54.3528333,80.311284 52.0474929,76.3547723 C49.8012638,72.4868391 47.7619242,68.5598535 45.8999185,64.6033417 C47.7323685,60.6468299 49.8012638,56.6903182 52.0179372,52.822385 C54.3232776,48.836347 56.6877293,45.0569924 59.1408479,41.5433738 C63.5446392,41.1595331 68.0075418,40.9528496 72.5,40.9528496 C76.9629026,40.9528496 81.4258051,41.1595331 85.8000408,41.5138476 C88.2531594,45.0274662 90.6471667,48.7772946 92.9525071,52.7338064 C95.1987362,56.6017395 97.2380758,60.5287251 99.1000815,64.4852369 C97.2380758,68.4417487 95.1987362,72.3982605 92.9820628,76.2661936 Z M102.528536,72.4277867 C104.124541,76.3842985 105.484101,80.3408103 106.607216,84.1792172 C102.735426,85.1240558 98.6567468,85.9212634 94.4302894,86.5413138 C95.8785161,84.2677958 97.3267428,81.9352255 98.6863025,79.5436027 C100.045862,77.1815061 101.316755,74.7898833 102.528536,72.4277867 Z M72.5591113,103.93225 C69.8104362,101.097734 67.0617611,97.9384298 64.3426417,94.4838636 C67.0026498,94.6019684 69.7217693,94.690547 72.4704444,94.690547 C75.2486751,94.690547 77.9973502,94.6314946 80.686914,94.4838636 C78.0269058,97.9384298 75.2782307,101.097734 72.5591113,103.93225 Z M50.5697106,86.5413138 C46.3728088,85.9212634 42.3236853,85.1535821 38.4518956,84.2087434 C39.5454545,80.3998627 40.9050143,76.4728771 42.4419079,72.5458915 C43.6536894,74.9079881 44.9245821,77.2700847 46.3136975,79.6321813 C47.7028129,81.9942779 49.1214839,84.297322 50.5697106,86.5413138 Z M72.4113331,25.0972763 C75.1600082,27.9317922 77.9086832,31.0910964 80.6278027,34.5456626 C77.9677945,34.4275578 75.2486751,34.3389792 72.5,34.3389792 C69.7217693,34.3389792 66.9730942,34.3980316 64.2835304,34.5456626 C66.9435385,31.0910964 69.6922136,27.9317922 72.4113331,25.0972763 Z M50.5401549,42.4882124 C49.0919283,44.7617304 47.6437016,47.0943008 46.2841419,49.4859236 C44.9245821,51.8480201 43.6536894,54.2101167 42.4419079,56.5722133 C40.845903,52.6157015 39.4863433,48.6591897 38.3632287,44.8207828 C42.2350183,43.9054704 46.3136975,43.1082628 50.5401549,42.4882124 Z M23.7922951,79.455024 C13.3295964,74.9965667 6.56135344,69.1503777 6.56135344,64.5147631 C6.56135344,59.8791485 13.3295964,54.0034333 23.7922951,49.5745022 C26.3340807,48.4820325 29.1123115,47.5076677 31.9792091,46.5923552 C33.663881,52.3794919 35.8805544,58.4028382 38.6292295,64.5738155 C35.9101101,70.7152667 33.7229923,76.7090867 32.0678761,82.4666972 C29.1418671,81.5513848 26.3636364,80.5474937 23.7922951,79.455024 Z M39.6932328,121.647974 C35.6736649,119.34493 33.9298818,110.575647 35.2894415,99.2966354 C35.6145536,96.5211719 36.1465552,93.5980774 36.7967795,90.6159304 C42.5896861,92.0331884 48.9145944,93.125658 55.5646148,93.834287 C59.554627,99.2966354 63.6924174,104.257038 67.8597636,108.597391 C58.2246229,117.543832 49.1805952,122.445182 43.0330208,122.445182 C41.7030167,122.415656 40.5799022,122.14992 39.6932328,121.647974 Z M109.799225,99.1490043 C111.188341,110.428016 109.474113,119.197299 105.484101,121.52987 C104.597432,122.061341 103.444762,122.297551 102.085202,122.297551 C95.967183,122.297551 86.8935997,117.425727 77.258459,108.538338 C81.3962495,104.197986 85.53404,99.2671092 89.4649409,93.8047608 C96.1445169,93.0961318 102.469425,92.0036622 108.262332,90.556878 C108.942112,93.5390249 109.474113,96.4030671 109.799225,99.1490043 Z M121.178149,79.455024 C118.636364,80.5474937 115.858133,81.5218585 112.991235,82.437171 C111.306563,76.6500343 109.08989,70.626688 106.341215,64.4557107 C109.060334,58.3142596 111.247452,52.3204395 112.902568,46.562829 C115.828577,47.4781415 118.606808,48.4820325 121.207705,49.5745022 C131.670404,54.0329595 138.438647,59.8791485 138.438647,64.5147631 C138.409091,69.1503777 131.640848,75.0260929 121.178149,79.455024 Z" id="Shape"></path>
                    </g>
                    <g id="london-eye" transform="translate(58.930481, 51.135135)">
                        <g id="Group">
                            <mask id="mask-3" fill="white">
                                <use xlink:href="#path-2"></use>
                            </mask>
                            <use id="Mask" fill="#FC997A" fill-rule="nonzero" xlink:href="#path-2"></use>
                        </g>
                    </g>
                </g>
            </g>
        </g>
    </g>
</svg>

<svg width="145" height="129" xmlns="http://www.w3.org/2000/svg" xmlns:xlink="http://www.w3.org/1999/xlink"><defs><linearGradient x1="0%" y1="50%" y2="50%" id="a"><stop stop-color="#FA709A" offset="0%"/><stop stop-color="#FEE140" offset="100%"/></linearGradient><ellipse id="b" cx="13.57" cy="13.559" rx="13.57" ry="13.559"/></defs><g fill="none" fill-rule="evenodd"><path d="M145 64.515c0-9.596-12.03-18.69-30.472-24.33 4.256-18.778 2.365-33.719-5.97-38.502C106.637.561 104.39.03 101.938.03v6.584c1.359 0 2.453.266 3.369.768 4.02 2.303 5.763 11.072 4.404 22.35-.326 2.776-.858 5.7-1.508 8.682-5.793-1.418-12.118-2.51-18.768-3.219-3.99-5.462-8.127-10.423-12.295-14.763 9.635-8.946 18.68-13.848 24.827-13.848V0c-8.128 0-18.768 5.787-29.526 15.826C61.683 5.846 51.043.118 42.915.118v6.584c6.118 0 15.191 4.872 24.827 13.76a139.488 139.488 0 0 0-12.207 14.733c-6.68.709-13.004 1.801-18.797 3.248a88.996 88.996 0 0 1-1.537-8.562C33.81 18.6 35.526 9.832 39.516 7.5c.887-.532 2.04-.768 3.399-.768V.148c-2.483 0-4.73.531-6.68 1.653-8.305 4.783-10.167 19.694-5.881 38.414C11.97 45.884 0 54.948 0 64.515c0 9.596 12.03 18.69 30.472 24.33-4.256 18.778-2.365 33.718 5.97 38.502 1.921 1.122 4.167 1.653 6.65 1.653 8.128 0 18.768-5.787 29.526-15.826 10.758 9.98 21.399 15.708 29.526 15.708 2.483 0 4.73-.532 6.68-1.654 8.305-4.783 10.167-19.694 5.881-38.413C133.03 83.175 145 74.08 145 64.515zM106.519 44.82c-1.094 3.809-2.454 7.736-3.99 11.663a139.69 139.69 0 0 0-3.872-7.087c-1.36-2.362-2.808-4.665-4.256-6.909 4.197.62 8.246 1.388 12.118 2.333zM92.982 76.266c-2.305 3.986-4.67 7.766-7.123 11.28-4.404.383-8.867.59-13.359.59-4.463 0-8.926-.207-13.3-.561a162.74 162.74 0 0 1-7.153-11.22A153.744 153.744 0 0 1 45.9 64.603a153.914 153.914 0 0 1 6.118-11.78c2.305-3.987 4.67-7.766 7.123-11.28 4.404-.383 8.867-.59 13.359-.59 4.463 0 8.926.207 13.3.56a162.74 162.74 0 0 1 7.153 11.22A153.744 153.744 0 0 1 99.1 64.486a165.26 165.26 0 0 1-6.118 11.781zm9.547-3.838a126.452 126.452 0 0 1 4.078 11.751c-3.872.945-7.95 1.742-12.177 2.362 1.449-2.273 2.897-4.606 4.256-6.997a167.66 167.66 0 0 0 3.843-7.116zm-29.97 31.504c-2.749-2.834-5.497-5.994-8.216-9.448 2.66.118 5.379.207 8.127.207 2.779 0 5.527-.06 8.217-.207a115.28 115.28 0 0 1-8.128 9.448zm-21.99-17.39c-4.196-.62-8.245-1.388-12.117-2.333 1.093-3.81 2.453-7.736 3.99-11.663a139.69 139.69 0 0 0 3.872 7.086 195.52 195.52 0 0 0 4.256 6.91zm21.842-61.445c2.749 2.835 5.498 5.994 8.217 9.449-2.66-.118-5.38-.207-8.128-.207-2.778 0-5.527.059-8.216.207a115.28 115.28 0 0 1 8.127-9.449zm-21.87 17.391c-1.45 2.274-2.897 4.606-4.257 6.998a166.742 166.742 0 0 0-3.842 7.086 126.452 126.452 0 0 1-4.079-11.751c3.872-.916 7.95-1.713 12.177-2.333zM23.791 79.455C13.33 74.997 6.562 69.15 6.562 64.515c0-4.636 6.768-10.512 17.23-14.94 2.542-1.093 5.32-2.067 8.187-2.983 1.685 5.787 3.902 11.81 6.65 17.982-2.719 6.141-4.906 12.135-6.561 17.893-2.926-.916-5.704-1.92-8.276-3.012zm15.901 42.193c-4.02-2.303-5.763-11.072-4.404-22.351.326-2.776.858-5.699 1.508-8.681 5.793 1.417 12.118 2.51 18.768 3.218 3.99 5.463 8.127 10.423 12.295 14.763-9.635 8.947-18.68 13.848-24.827 13.848-1.33-.03-2.453-.295-3.34-.797zM109.8 99.149c1.39 11.279-.325 20.048-4.315 22.38-.887.532-2.04.769-3.399.769-6.118 0-15.191-4.872-24.827-13.76a139.488 139.488 0 0 0 12.207-14.733c6.68-.709 13.004-1.801 18.797-3.248.68 2.982 1.212 5.846 1.537 8.592zm11.38-19.694c-2.543 1.092-5.32 2.067-8.188 2.982-1.684-5.787-3.901-11.81-6.65-17.981 2.72-6.142 4.906-12.136 6.562-17.893a93.801 93.801 0 0 1 8.305 3.012c10.462 4.458 17.23 10.304 17.23 14.94-.029 4.635-6.797 10.511-17.26 14.94z" fill="url(#a)" fill-rule="nonzero"/><use fill="#FC997A" fill-rule="nonzero" xlink:href="#b" transform="translate(58.93 51.135)"/></g></svg>
